X: 13417
T: Floating Candles
R: reel
M: 4/4
K: Gmixolydian
|:e2 Ae ~ed ce|dBBB GABd|e3e2 dce|dcBG G~A3|
ABcd edce|dBBB GA~AG|ABcd edce|dcBG ABcd|
e2e2edce|dBBB GABd|e2ge2dce|dcBG A4|
ABcd edce|dBBB GA~AG|ABcd edce|dcBG A/B/cde|
f3 f2edf|de~e2 edce|dB ~B2 ABce|dBAG A/A/Bce|
f3 f2edf|de~e2 edce|dB ~B2 ABce|dBAG A/A/Bce|
f2{A} ~f2 fedf|{A}e2 ee edce|dB ~B2 ABce|dBAG A/A/Bce|
f3 f2edf|de~e2 edce|dB ~B2 ABce|1 dcAG ABcd:|2 dcAG A4||

